X:659
T: "Die Schoepfung"
N: Z1340
O: Europa, Mitteleuropa, Deutschland, Franken
R: Zech -, Schalks - Lied
M: 6/8
L: 1/16
K: F
C2 | F4A2c4c2 | c6B4
B2 | A3BA2G2A2G2 | F6-F4
C2 | F4A2c4c2 | c6B4
B2 | A3BA2G4G2 | F6-F4
F2 | c4c2c2A2F2 | B2c2d2c4
F2 | F4A2c2B2A2 | G4z6
C2 | F4A2c4c2 | c6B4
B2 | A4A2G4G2 | F6-F4

